X: 2
T:Reel de Pere Leon
M:4/4
L:1/8
Q:210
S:from Vivian Williams Workshop in Ellensburg
R:reel
N:learned from "Fluke Hits"
N:by the Fish Family
Z:William C. Dunlap  2001-01-17
K:G
|:"G"g2 gf gedc|BGAc BG3|B3 B cBAG |"D" FGAB A2 d2|
"G"g2 gf gedc|BGAc BG3|B3 B cBAG |1 "D"FGAF "G"G2 d2:|
2 "D"FGAF "G"G2 D2
|:"G" B3 B cBAG |BGBG cBAG|B3 B cBAG |"D"FGAB A2 D2|
"G"B3 B cBAG |BGBG cBAG|BGBd cBAG|1 "D"FGAF "G"G2 D2:|
2 "D"FGAF "G"G2 d2|
